build/documents/FilePDFOutline.svg

<svg xmlns="http://www.w3.org/2000/svg" fill="none" viewBox="0 0 24 24" focusable="false"><path d="M0 0H24V24H0z"/><path fill="#74767B" fill-rule="evenodd" d="M5 11L5 6C5 4.34315 6.34315 3 8 3L13.042 3C13.8752 3 14.671 3.34655 15.2385 3.95662L18.1965 7.13629C18.7129 7.69141 19 8.42148 19 9.17966L19 11C20.6569 11 22 12.3431 22 14L22 18C22 19.6569 20.6569 21 19 21L5 21C3.34315 21 2 19.6569 2 18L2 14C2 12.3431 3.34315 11 5 11ZM13.042 4.3L8 4.3C7.06112 4.3 6.3 5.06112 6.3 6L6.3 11L17.7 11L17.7 9.17966C17.7 9.11913 17.6968 9.05892 17.6904 8.99925L15.2999 8.99926C14.223 8.99926 13.3499 8.12621 13.3499 7.04926L13.3499 4.32811C13.2491 4.30954 13.1461 4.3 13.042 4.3ZM14.6499 5.23254L16.9447 7.69926L15.2999 7.69926C14.9409 7.69926 14.6499 7.40824 14.6499 7.04926L14.6499 5.23254ZM5 12.3L19 12.3C19.9389 12.3 20.7 13.0611 20.7 14L20.7 18C20.7 18.9389 19.9389 19.7 19 19.7L5 19.7C4.06112 19.7 3.3 18.9389 3.3 18L3.3 14C3.3 13.0611 4.06112 12.3 5 12.3ZM6.08984 18.4086C6.44883 18.4086 6.73984 18.1176 6.73984 17.7586L6.73984 17.1861L7.40794 17.1861C8.40062 17.1861 9.20535 16.3814 9.20535 15.3887C9.20535 14.3961 8.40062 13.5913 7.40794 13.5913L6.08984 13.5913C5.73086 13.5913 5.43984 13.8823 5.43984 14.2413L5.43984 17.7586C5.43984 18.1176 5.73086 18.4086 6.08984 18.4086ZM11.0562 18.4086C10.8838 18.4086 10.7185 18.3401 10.5966 18.2182C10.4747 18.0963 10.4062 17.931 10.4062 17.7586L10.4062 14.2413C10.4062 14.0689 10.4747 13.9036 10.5966 13.7817C10.7185 13.6598 10.8838 13.5913 11.0562 13.5913L12.2217 13.5913C13.2987 13.5913 14.1717 14.4644 14.1717 15.5413L14.1717 16.4586C14.1717 17.5356 13.2987 18.4086 12.2217 18.4086L11.0562 18.4086ZM16.8415 17.7587C16.8415 18.1177 16.5505 18.4087 16.1915 18.4087C15.8325 18.4087 15.5415 18.1177 15.5415 17.7587L15.5415 14.2414C15.5415 13.8824 15.8325 13.5914 16.1915 13.5914L17.9104 13.5914C18.2693 13.5914 18.5604 13.8824 18.5604 14.2414C18.5604 14.6004 18.2693 14.8914 17.9104 14.8914L16.8415 14.8914L16.8415 15.8915L17.3224 15.8915C17.6814 15.8915 17.9724 16.1825 17.9724 16.5415C17.9724 16.9005 17.6814 17.1915 17.3224 17.1915L16.8415 17.1915L16.8415 17.7587ZM6.73984 15.8861L6.73984 14.8913L7.40794 14.8913C7.68265 14.8913 7.90534 15.114 7.90534 15.3887C7.90534 15.6634 7.68265 15.8861 7.40794 15.8861L6.73984 15.8861ZM11.7062 14.8913L11.7062 17.1086L12.2217 17.1086C12.5807 17.1086 12.8717 16.8176 12.8717 16.4586L12.8717 15.5413C12.8717 15.1823 12.5807 14.8913 12.2217 14.8913L11.7062 14.8913Z"/></svg>

<svg xmlns="http://www.w3.org/2000/svg" fill="none" viewBox="0 0 24 24" focusable="false"><path fill="#74767B" fill-rule="evenodd" d="M5 11V6c0-1.66 1.34-3 3-3h5.04c.83 0 1.63.34 2.19.95l2.96 3.18c.52.56.81 1.29.81 2.04V11c1.65 0 3 1.34 3 3v4c0 1.65-1.35 3-3 3H5c-1.66 0-3-1.35-3-3v-4c0-1.66 1.34-3 3-3m8.04-6.71H8c-.94 0-1.7.77-1.7 1.71v5h11.4V9.17c0-.06-.01-.12-.01-.18h-2.4c-1.07 0-1.95-.87-1.95-1.95V4.32q-.15-.03-.3-.03m1.6.94 2.3 2.46h-1.65c-.35 0-.65-.29-.65-.65zM5 12.3h14c.93 0 1.7.76 1.7 1.7v4c0 .93-.77 1.7-1.7 1.7H5c-.94 0-1.7-.77-1.7-1.7v-4c0-.94.76-1.7 1.7-1.7m1.08 6.1c.36 0 .65-.29.65-.65v-.57h.67c1 0 1.8-.8 1.8-1.8 0-.99-.8-1.79-1.8-1.79H6.08c-.35 0-.65.29-.65.65v3.51c0 .36.3.65.65.65m4.51-.19c.12.13.29.19.46.19h1.17c1.07 0 1.95-.87 1.95-1.95v-.91c0-1.08-.88-1.95-1.95-1.95h-1.17a.62.62 0 0 0-.46.19c-.12.12-.19.28-.19.46v3.51c0 .18.07.34.19.46m6.25-.46c0 .36-.29.65-.65.65s-.65-.29-.65-.65v-3.51c0-.36.29-.65.65-.65h1.72c.35 0 .65.29.65.65s-.3.65-.65.65h-1.07v1h.48c.36 0 .65.29.65.65s-.29.65-.65.65h-.48zM6.73 15.88v-.99h.67a.495.495 0 1 1 0 .99zm4.97 1.22v-2.21h.52c.36 0 .65.29.65.65v.91c0 .36-.29.65-.65.65z"/></svg>
